X:1
T:Gold Ring [5], The
M:2/4
L:1/8
R:March
S:Thomas Nixon Jr./Joseph Long copybook (c. 1776-78)
Z:AK/Fiddler’s Companion
K:G
G2 Bd|cAFD|GBdg|d2B2|c2 Ac|BABG|cA FD|G2 B,2:|
|:d2 Bc|dB ge|d2 (Bc)|d2B2|g2 (eg)|gefd|e2^c2|d=cBA|
G2 (Bd)|cAFD|GBdg|d2B2|ce Ac|Bd GB|Ac DF|G2 B,2:|

